public/img/home/solutions/icon-solutions-09.svg

<svg fill="none" height="87" viewBox="0 0 109 87" width="109" xmlns="http://www.w3.org/2000/svg"><path d="m101.615 29.3805-42.6492-24.48901c-2.0536-1.1788-4.6094-1.19-6.6724-.02891l-42.68214 24.01812c-2.12361 1.1946-3.4071 3.362-3.43511 5.797-.02613 2.3445 1.11921 4.4662 3.07573 5.7299v17.4358c-2.38404.235-4.25188 2.2494-4.25188 4.691 0 2.6 2.11707 4.7142 4.71861 4.7142 2.60149 0 4.71859-2.1151 4.71859-4.7142 0-2.4425-1.8688-4.456-4.2519-4.691v-16.8763l16.0312 9.4985v13.7362c0 1.481.7523 2.8305 2.0134 3.611l25.1323 15.5371c.7001.4327 1.4852.6491 2.2711.6491.7823 0 1.5645-.2145 2.2637-.6435l25.2508-15.5249c1.2565-.7722 2.0107-2.1674 1.9687-3.6428l-.4443-13.504 16.8058-9.5395.107-.0606c2.131-1.2105 3.408-3.3947 3.413-5.8437.006-2.449-1.259-4.6396-3.385-5.8595zm-88.1103 33.1548c0 2.0853-1.698 3.7817-3.78516 3.7817-2.0872 0-3.78515-1.6964-3.78515-3.7817s1.69795-3.7817 3.78515-3.7817c2.08716 0 3.78516 1.6964 3.78516 3.7817zm70.6793 1.6824c.0326 1.1415-.5517 2.2214-1.5244 2.8192l-25.2508 15.524c-1.0978.6743-2.4587.6734-3.5537-.0037l-25.1323-15.5371c-.9839-.6089-1.5719-1.6618-1.5719-2.8183v-13.1831l24.4891 14.5093c1.038.6155 2.2282.941 3.4417.941s2.3205-.3031 3.3324-.8776l25.3433-14.3862.4275 13.0116zm16.976-23.964-43.208 24.5273c-.8709.4942-1.8641.7563-2.8713.7563s-2.0713-.2807-2.9655-.8104l-42.15856-24.9787c-1.80623-1.0706-2.87037-2.9619-2.84703-5.0593.02333-2.0984 1.13041-3.9654 2.95999-4.995l42.6822-24.0181c.8811-.49614 1.8659-.74328 2.8517-.74328.9857 0 2.005.25647 2.8965.76846l42.649 24.48902c1.832 1.0511 2.922 2.9386 2.917 5.0491-.005 2.0974-1.092 3.9691-2.907 5.0155z" fill="#fff"/></svg>

<svg width="109" height="87" viewBox="0 0 109 87" fill="none" xmlns="http://www.w3.org/2000/svg">
<path d="M101.615 29.3805L58.9658 4.89149C56.9122 3.71269 54.3564 3.70149 52.2934 4.86258L9.61126 28.8807C7.48765 30.0753 6.20416 32.2427 6.17615 34.6777C6.15002 37.0222 7.29536 39.1439 9.25188 40.4076V57.8434C6.86784 58.0784 5 60.0928 5 62.5344C5 65.1344 7.11707 67.2486 9.71861 67.2486C12.3201 67.2486 14.4372 65.1335 14.4372 62.5344C14.4372 60.0919 12.5684 58.0784 10.1853 57.8434V40.9671L26.2165 50.4656V64.2018C26.2165 65.6828 26.9688 67.0323 28.2299 67.8128L53.3622 83.3499C54.0623 83.7826 54.8474 83.999 55.6333 83.999C56.4156 83.999 57.1978 83.7845 57.897 83.3555L83.1478 67.8306C84.4043 67.0584 85.1585 65.6632 85.1165 64.1878L84.6722 50.6838L101.478 41.1443L101.585 41.0837C103.716 39.8732 104.993 37.689 104.998 35.24C105.004 32.791 103.739 30.6004 101.613 29.3805H101.615ZM13.5047 62.5353C13.5047 64.6206 11.8067 66.317 9.71954 66.317C7.63234 66.317 5.93439 64.6206 5.93439 62.5353C5.93439 60.45 7.63234 58.7536 9.71954 58.7536C11.8067 58.7536 13.5047 60.45 13.5047 62.5353ZM84.184 64.2177C84.2166 65.3592 83.6323 66.4391 82.6596 67.0369L57.4088 82.5609C56.311 83.2352 54.9501 83.2343 53.8551 82.5572L28.7228 67.0201C27.7389 66.4112 27.1509 65.3583 27.1509 64.2018V51.0187L51.64 65.528C52.678 66.1435 53.8682 66.469 55.0817 66.469C56.2952 66.469 57.4022 66.1659 58.4141 65.5914L83.7574 51.2052L84.1849 64.2168L84.184 64.2177ZM101.16 40.2537L57.952 64.781C57.0811 65.2752 56.0879 65.5373 55.0807 65.5373C54.0735 65.5373 53.0094 65.2566 52.1152 64.7269L9.95664 39.7482C8.15041 38.6776 7.08627 36.7863 7.10961 34.6889C7.13294 32.5905 8.24002 30.7235 10.0696 29.6939L52.7518 5.6758C53.6329 5.17966 54.6177 4.93252 55.6035 4.93252C56.5892 4.93252 57.6085 5.18899 58.5 5.70098L101.149 30.19C102.981 31.2411 104.071 33.1286 104.066 35.2391C104.061 37.3365 102.974 39.2082 101.159 40.2546L101.16 40.2537Z" fill="white"/>
</svg>
